Obsidian-SemiLight/actions/24s/irc-voice.svg

<svg viewBox="0 0 24 24" xmlns="http://www.w3.org/2000/svg"><path d="m16 5-12 3.4179688v1.0429687 4.5390625.582031l1 .285157v2.132812.300781l6 1.699219v-1-1.423828l5 1.423828v-1.042969-10.9140622zm4.029297.4277344-.771485.6308594c1.137261 1.77224 1.741928 3.833703 1.742188 5.9394532-.004 2.10388-.61142 4.162469-1.75 5.931641l.783203.642578c1.28155-1.95324 1.965107-4.238079 1.966797-6.574219-.004-2.3352002-.688503-4.6186226-1.970703-6.5703126zm-5.029297.9003906v10.34375l-10-2.847656v-4.6484378zm2.689453 1.015625-.78125.6386719c.71179 1.21879 1.088467 2.6042051 1.091797 4.0156251-.002 1.4119-.378404 2.798018-1.089844 4.017578l.78125.640625c.85323-1.40417 1.305784-3.015133 1.308594-4.658203-.004-1.64193-.457317-3.251457-1.310547-4.654297zm-14.689453 1.359375-1 .2851562v.0117188 1 3 1 .011719l1 .285156v-.296875-.746094-3.5078122-.7460938zm3 6.449219 4 1.138672v1.425781l-4-1.132813z" fill="#4d4d4d"/></svg>

<svg xmlns="http://www.w3.org/2000/svg" viewBox="0 0 24 24">
  <defs id="defs3051">
    <style type="text/css" id="current-color-scheme">
      .ColorScheme-Text {
        color:#4d4d4d;
      }
      </style>
  </defs>
 <path style="fill:currentColor;fill-opacity:1;stroke:none" 
     d="M 16 5 L 4 8.4179688 L 4 9.4609375 L 4 14 L 4 14.582031 L 5 14.867188 L 5 17 L 5 17.300781 L 11 19 L 11 18 L 11 16.576172 L 16 18 L 16 16.957031 L 16 6.0429688 L 16 5 z M 20.029297 5.4277344 L 19.257812 6.0585938 C 20.395073 7.8308338 20.99974 9.8922968 21 11.998047 C 20.996 14.101927 20.38858 16.160516 19.25 17.929688 L 20.033203 18.572266 C 21.314753 16.619026 21.99831 14.334187 22 11.998047 C 21.996 9.6628468 21.311497 7.3794244 20.029297 5.4277344 z M 15 6.328125 L 15 16.671875 L 5 13.824219 L 5 9.1757812 L 15 6.328125 z M 17.689453 7.34375 L 16.908203 7.9824219 C 17.619993 9.2012119 17.99667 10.586627 18 11.998047 C 17.998 13.409947 17.621596 14.796065 16.910156 16.015625 L 17.691406 16.65625 C 18.544636 15.25208 18.99719 13.641117 19 11.998047 C 18.996 10.356117 18.542683 8.74659 17.689453 7.34375 z M 3 8.703125 L 2 8.9882812 L 2 9 L 2 10 L 2 13 L 2 14 L 2 14.011719 L 3 14.296875 L 3 14 L 3 13.253906 L 3 9.7460938 L 3 9 L 3 8.703125 z M 6 15.152344 L 10 16.291016 L 10 17.716797 L 6 16.583984 L 6 15.152344 z "
     class="ColorScheme-Text"
     />
</svg>
